rospo-light/16x16/actions/guides.svg

<svg height="16" viewBox="0 0 16 16" width="16" xmlns="http://www.w3.org/2000/svg"><path d="m8.8457031.98242188-3.6230469 13.52343712 1.9316407.517579 3.6230471-13.523438zm-6.8457031.02148432v13.9999998h2v-13.9999998zm10 0v13.9999998h2v-13.9999998z" fill="#5c616c"/></svg>

<?xml version="1.0" encoding="UTF-8" standalone="no"?>
<svg xmlns="http://www.w3.org/2000/svg" width="22" height="22" viewBox="0 0 22 22">
 <defs>
  <style type="text/css" id="current-color-scheme">
   .ColorScheme-Text { color:#5c616c; } .ColorScheme-Highlight { color:#5294e2; }
  </style>
 </defs>
 <path style="fill:currentColor;opacity:1" class="ColorScheme-Text" transform="translate(3 3)" d="M 8.8457031 0.98242188 L 5.2226562 14.505859 L 7.1542969 15.023438 L 10.777344 1.5 L 8.8457031 0.98242188 z M 2 1.0039062 L 2 15.003906 L 4 15.003906 L 4 1.0039062 L 2 1.0039062 z M 12 1.0039062 L 12 15.003906 L 14 15.003906 L 14 1.0039062 L 12 1.0039062 z"/>
</svg>
